library/extension-assets/src/PolkaGateSnap/icon.svg

<svg viewBox="0 0 319 319" fill="none" xmlns="http://www.w3.org/2000/svg"><g clip-path="url(#clip0_8265_59508)"><g clip-path="url(#clip1_8265_59508)"><path d="M274.102 35.5l-99.5 73.9 18.4-43.6 81.1-30.3z" fill="#E2761B" stroke="#E2761B" stroke-linecap="round" stroke-linejoin="round"/><path d="M44.398 35.5l98.7 74.6-17.5-44.3-81.2-30.3zm193.9 171.3l-26.5 40.6 56.7 15.6 16.3-55.3-46.5-.9zm-204.4.9l16.2 55.3 56.7-15.6-26.5-40.6-46.4.9z" fill="#E4761B" stroke="#000" stroke-linecap="round" stroke-linejoin="round"/><path d="M103.597 138.2l-15.8 23.9 56.3 2.5-2-60.5-38.5 34.1zm111.3 0l-39-34.8-1.3 61.2 56.2-2.5-15.9-23.9zm-108.1 109.2l33.8-16.5-29.2-22.8-4.6 39.3zm71.1-16.5l33.9 16.5-4.7-39.3-29.2 22.8z" fill="#E4761B" stroke="#000" stroke-linecap="round" stroke-linejoin="round"/><path d="M211.797 247.4l-33.9-16.5 2.7 22.1-.3 9.3 31.5-14.9zm-105 0l31.5 14.9-.2-9.3 2.5-22.1-33.8 16.5z" fill="#D7C1B3" stroke="#D7C1B3" stroke-linecap="round" stroke-linejoin="round"/><path d="M138.802 193.5l-28.2-8.3 19.9-9.1 8.3 17.4zm40.9 0l8.3-17.4 20 9.1-28.3 8.3z" fill="#233447" stroke="#233447" stroke-linecap="round" stroke-linejoin="round"/><path d="M106.797 247.4l4.8-40.6-31.3.9 26.5 39.7zm100.2-40.6l4.8 40.6 26.5-39.7-31.3-.9zm23.8-44.7l-56.2 2.5 5.2 28.9 8.3-17.4 20 9.1 22.7-23.1zm-120.2 23.1l20-9.1 8.2 17.4 5.3-28.9-56.3-2.5 22.8 23.1z" fill="#CD6116" stroke="#CD6116" stroke-linecap="round" stroke-linejoin="round"/><path d="M87.797 162.1l23.6 46-.8-22.9-22.8-23.1zm120.3 23.1l-1 22.9 23.7-46-22.7 23.1zm-64-20.6l-5.3 28.9 6.6 34.1 1.5-44.9-2.8-18.1zm30.5 0l-2.7 18 1.2 45 6.7-34.1-5.2-28.9z" fill="#E4751F" stroke="#E4751F" stroke-linecap="round" stroke-linejoin="round"/><path d="M179.802 193.5l-6.7 34.1 4.8 3.3 29.2-22.8 1-22.9-28.3 8.3zm-69.2-8.3l.8 22.9 29.2 22.8 4.8-3.3-6.6-34.1-28.2-8.3z" fill="#F6851B" stroke="#F6851B" stroke-linecap="round" stroke-linejoin="round"/><path d="M180.297 262.3l.3-9.3-2.5-2.2h-37.7l-2.3 2.2.2 9.3-31.5-14.9 11 9 22.3 15.5h38.3l22.4-15.5 11-9-31.5 14.9z" fill="#C0AD9E" stroke="#C0AD9E" stroke-linecap="round" stroke-linejoin="round"/><path d="M177.902 230.9l-4.8-3.3h-27.7l-4.8 3.3-2.5 22.1 2.3-2.2h37.7l2.5 2.2-2.7-22.1z" fill="#161616" stroke="#161616" stroke-linecap="round" stroke-linejoin="round"/><path d="M278.297 114.2l8.5-40.8-12.7-37.9-96.2 71.4 37 31.3 52.3 15.3 11.6-13.5-5-3.6 8-7.3-6.2-4.8 8-6.1-5.3-4zm-246.5-40.8l8.5 40.8-5.4 4 8 6.1-6.1 4.8 8 7.3-5 3.6 11.5 13.5 52.3-15.3 37-31.3-96.2-71.4-12.6 37.9z" fill="#763D16" stroke="#763D16" stroke-linecap="round" stroke-linejoin="round"/><path d="M267.198 153.5l-52.3-15.3 15.9 23.9-23.7 46 31.2-.4h46.5l-17.6-54.2zm-163.6-15.3l-52.3 15.3-17.4 54.2h46.4l31.1.4-23.6-46 15.8-23.9zm71 26.4l3.3-57.7 15.2-41.1h-67.5l15 41.1 3.5 57.7 1.2 18.2.1 44.8h27.7l.2-44.8 1.3-18.2z" fill="#F6851B" stroke="#F6851B" stroke-linecap="round" stroke-linejoin="round"/><g clip-path="url(#clip2_8265_59508)"><path d="M255 319c35.346 0 64-28.654 64-64 0-35.346-28.654-64-64-64-35.346 0-64 28.654-64 64 0 35.346 28.654 64 64 64z" fill="#000"/><path d="M297.342 219.67a27.457 27.457 0 00-8.2-4.78 45.995 45.995 0 00-15.61-2.82 76.035 76.035 0 00-22.48 3.1 55.042 55.042 0 00-9.8 3.5l-.16.07a62.545 62.545 0 0113.47-1.24c4.587.025 9.135.848 13.44 2.43a23.681 23.681 0 017.07 4.12 17.05 17.05 0 016.17 13.43 26.415 26.415 0 01-3.41 12.52 51.076 51.076 0 01-11.76 14.42 78.856 78.856 0 01-22.91 14 73.112 73.112 0 01-24.53 5.48 44.614 44.614 0 01-13.14-1.25 29.407 29.407 0 008.82 4.4 50.577 50.577 0 0017.51 2.1 84.723 84.723 0 0028.47-6.4 91.693 91.693 0 0026.59-16.21 59.245 59.245 0 0013.66-16.76 30.799 30.799 0 004-14.52 19.78 19.78 0 00-7.2-15.59z" fill="#E30B7B"/><path d="M256.561 271.54c1-.66 2-1.34 3-2-1.69-.4-3.44-.86-5-1.33-4.76-1.47-3.17-7.82-2-9.38a68.701 68.701 0 007.14-13.4c1.49-4.1.19-9.22-.49-11.36-.12-.33-.24-.67-.34-1l-1.84-5.56a19.568 19.568 0 00-2.53-4.67 7.578 7.578 0 00-6-3.14 16.253 16.253 0 00-3.74.33c-2 .32-4 .68-6 1a.922.922 0 01-.21 0c.48.61.9 1.14 1.3 1.67.59.8 1.17 1.62 1.77 2.42a8.634 8.634 0 011.72 4.88 17.494 17.494 0 01-.24 3.32 70.378 70.378 0 00-5.45 8.89l-14.91 29.41a1.314 1.314 0 00-.07.18l.06.06 5-3 .06.07c-5.353 8.58-10.713 17.16-16.08 25.74h.05l2.24-1.27c-.63 1.54-1.22 3-1.84 4.54a9.482 9.482 0 002.84-1.54 7.825 7.825 0 002.1-2.49l.42.71.29-.35c3.73-4.73 7.59-9.36 11.63-13.84a107.247 107.247 0 019.77-9.77 23.316 23.316 0 014.79-3.31 5.396 5.396 0 012-.59l-2.59 2.79c1.88-1 2.15-.31 4-1.27l.21.22c1.62 1.92 5.27 2.6 7.77 2.82.395.043.786.116 1.17.22z" fill="#fff"/></g></g></g><defs><clipPath id="clip0_8265_59508"><path fill="#fff" d="M0 0h319v319H0z"/></clipPath><clipPath id="clip1_8265_59508"><path fill="#fff" d="M0 0h318.6v318.6H0z"/></clipPath><clipPath id="clip2_8265_59508"><path fill="#fff" transform="translate(191 191)" d="M0 0h128v128H0z"/></clipPath></defs></svg>

<svg width="319" height="319" viewBox="0 0 319 319" fill="none" xmlns="http://www.w3.org/2000/svg">
<g clip-path="url(#clip0_8265_59508)">
<g clip-path="url(#clip1_8265_59508)">
<path d="M274.102 35.5L174.602 109.4L193.002 65.8L274.102 35.5Z" fill="#E2761B" stroke="#E2761B" stroke-linecap="round" stroke-linejoin="round"/>
<path d="M44.3984 35.5L143.098 110.1L125.598 65.8L44.3984 35.5ZM238.298 206.8L211.798 247.4L268.498 263L284.798 207.7L238.298 206.8ZM33.8984 207.7L50.0984 263L106.798 247.4L80.2984 206.8L33.8984 207.7Z" fill="#E4761B" stroke="black" stroke-linecap="round" stroke-linejoin="round"/>
<path d="M103.597 138.2L87.7969 162.1L144.097 164.6L142.097 104.1L103.597 138.2ZM214.897 138.2L175.897 103.4L174.597 164.6L230.797 162.1L214.897 138.2ZM106.797 247.4L140.597 230.9L111.397 208.1L106.797 247.4ZM177.897 230.9L211.797 247.4L207.097 208.1L177.897 230.9Z" fill="#E4761B" stroke="black" stroke-linecap="round" stroke-linejoin="round"/>
<path d="M211.797 247.4L177.897 230.9L180.597 253L180.297 262.3L211.797 247.4ZM106.797 247.4L138.297 262.3L138.097 253L140.597 230.9L106.797 247.4Z" fill="#D7C1B3" stroke="#D7C1B3" stroke-linecap="round" stroke-linejoin="round"/>
<path d="M138.802 193.5L110.602 185.2L130.502 176.1L138.802 193.5ZM179.702 193.5L188.002 176.1L208.002 185.2L179.702 193.5Z" fill="#233447" stroke="#233447" stroke-linecap="round" stroke-linejoin="round"/>
<path d="M106.797 247.4L111.597 206.8L80.2969 207.7L106.797 247.4ZM206.997 206.8L211.797 247.4L238.297 207.7L206.997 206.8ZM230.797 162.1L174.597 164.6L179.797 193.5L188.097 176.1L208.097 185.2L230.797 162.1ZM110.597 185.2L130.597 176.1L138.797 193.5L144.097 164.6L87.7969 162.1L110.597 185.2Z" fill="#CD6116" stroke="#CD6116" stroke-linecap="round" stroke-linejoin="round"/>
<path d="M87.7969 162.1L111.397 208.1L110.597 185.2L87.7969 162.1ZM208.097 185.2L207.097 208.1L230.797 162.1L208.097 185.2ZM144.097 164.6L138.797 193.5L145.397 227.6L146.897 182.7L144.097 164.6ZM174.597 164.6L171.897 182.6L173.097 227.6L179.797 193.5L174.597 164.6Z" fill="#E4751F" stroke="#E4751F" stroke-linecap="round" stroke-linejoin="round"/>
<path d="M179.802 193.5L173.102 227.6L177.902 230.9L207.102 208.1L208.102 185.2L179.802 193.5ZM110.602 185.2L111.402 208.1L140.602 230.9L145.402 227.6L138.802 193.5L110.602 185.2Z" fill="#F6851B" stroke="#F6851B" stroke-linecap="round" stroke-linejoin="round"/>
<path d="M180.297 262.3L180.597 253L178.097 250.8H140.397L138.097 253L138.297 262.3L106.797 247.4L117.797 256.4L140.097 271.9H178.397L200.797 256.4L211.797 247.4L180.297 262.3Z" fill="#C0AD9E" stroke="#C0AD9E" stroke-linecap="round" stroke-linejoin="round"/>
<path d="M177.902 230.9L173.102 227.6H145.402L140.602 230.9L138.102 253L140.402 250.8H178.102L180.602 253L177.902 230.9Z" fill="#161616" stroke="#161616" stroke-linecap="round" stroke-linejoin="round"/>
<path d="M278.297 114.2L286.797 73.4L274.097 35.5L177.897 106.9L214.897 138.2L267.197 153.5L278.797 140L273.797 136.4L281.797 129.1L275.597 124.3L283.597 118.2L278.297 114.2ZM31.7969 73.4L40.2969 114.2L34.8969 118.2L42.8969 124.3L36.7969 129.1L44.7969 136.4L39.7969 140L51.2969 153.5L103.597 138.2L140.597 106.9L44.3969 35.5L31.7969 73.4Z" fill="#763D16" stroke="#763D16" stroke-linecap="round" stroke-linejoin="round"/>
<path d="M267.198 153.5L214.898 138.2L230.798 162.1L207.098 208.1L238.298 207.7H284.798L267.198 153.5ZM103.598 138.2L51.2984 153.5L33.8984 207.7H80.2984L111.398 208.1L87.7984 162.1L103.598 138.2ZM174.598 164.6L177.898 106.9L193.098 65.7998H125.598L140.598 106.9L144.098 164.6L145.298 182.8L145.398 227.6H173.098L173.298 182.8L174.598 164.6Z" fill="#F6851B" stroke="#F6851B" stroke-linecap="round" stroke-linejoin="round"/>
<g clip-path="url(#clip2_8265_59508)">
<path d="M255 319C290.346 319 319 290.346 319 255C319 219.654 290.346 191 255 191C219.654 191 191 219.654 191 255C191 290.346 219.654 319 255 319Z" fill="black"/>
<path d="M297.342 219.67C294.907 217.613 292.132 215.995 289.142 214.89C284.141 213.053 278.86 212.099 273.532 212.07C265.926 211.973 258.348 213.018 251.052 215.17C247.682 216.025 244.401 217.196 241.252 218.67L241.092 218.74C245.524 217.841 250.041 217.425 254.562 217.5C259.149 217.525 263.697 218.348 268.002 219.93C270.58 220.883 272.973 222.277 275.072 224.05C277.042 225.682 278.62 227.737 279.688 230.062C280.756 232.387 281.287 234.922 281.242 237.48C281.164 241.872 279.992 246.175 277.832 250C274.828 255.486 270.842 260.374 266.072 264.42C259.292 270.362 251.543 275.097 243.162 278.42C235.363 281.649 227.064 283.503 218.632 283.9C214.214 284.137 209.786 283.716 205.492 282.65C208.164 284.603 211.146 286.09 214.312 287.05C219.981 288.77 225.908 289.481 231.822 289.15C241.611 288.679 251.244 286.514 260.292 282.75C270.015 278.902 279.008 273.42 286.882 266.54C292.425 261.839 297.055 256.157 300.542 249.78C303.056 245.346 304.431 240.357 304.542 235.26C304.59 232.288 303.968 229.343 302.721 226.644C301.475 223.945 299.636 221.561 297.342 219.67Z" fill="#E30B7B"/>
<path d="M256.561 271.54C257.561 270.88 258.561 270.2 259.561 269.54C257.871 269.14 256.121 268.68 254.561 268.21C249.801 266.74 251.391 260.39 252.561 258.83C255.429 254.641 257.823 250.147 259.701 245.43C261.191 241.33 259.891 236.21 259.211 234.07C259.091 233.74 258.971 233.4 258.871 233.07L257.031 227.51C256.404 225.846 255.553 224.275 254.501 222.84C253.813 221.887 252.912 221.108 251.871 220.563C250.83 220.018 249.676 219.723 248.501 219.7C247.246 219.665 245.991 219.776 244.761 220.03C242.761 220.35 240.761 220.71 238.761 221.03C238.691 221.038 238.621 221.038 238.551 221.03C239.031 221.64 239.451 222.17 239.851 222.7C240.441 223.5 241.021 224.32 241.621 225.12C242.68 226.533 243.28 228.236 243.341 230C243.367 231.112 243.286 232.224 243.101 233.32C241.067 236.145 239.245 239.116 237.651 242.21L222.741 271.62C222.713 271.678 222.69 271.739 222.671 271.8L222.731 271.86L227.731 268.86L227.791 268.93C222.438 277.51 217.078 286.09 211.711 294.67H211.761L214.001 293.4C213.371 294.94 212.781 296.4 212.161 297.94C213.189 297.593 214.149 297.072 215.001 296.4C215.868 295.727 216.583 294.878 217.101 293.91L217.521 294.62L217.811 294.27C221.541 289.54 225.401 284.91 229.441 280.43C232.484 276.967 235.748 273.703 239.211 270.66C240.663 269.361 242.272 268.249 244.001 267.35C244.623 267.025 245.302 266.825 246.001 266.76L243.411 269.55C245.291 268.55 245.561 269.24 247.411 268.28L247.621 268.5C249.241 270.42 252.891 271.1 255.391 271.32C255.786 271.363 256.177 271.436 256.561 271.54Z" fill="white"/>
</g>
</g>
</g>
<defs>
<clipPath id="clip0_8265_59508">
<rect width="319" height="319" fill="white"/>
</clipPath>
<clipPath id="clip1_8265_59508">
<rect width="318.6" height="318.6" fill="white"/>
</clipPath>
<clipPath id="clip2_8265_59508">
<rect width="128" height="128" fill="white" transform="translate(191 191)"/>
</clipPath>
</defs>
</svg>
